X:1
T:Title
%%score ( 1 2 3 ) { 4 | ( 5 6 ) }
L:1/8
Q:1/4=107
M:4/4
K:C
V:1 treble nm="Grand Piano, Soprano"
V:2 treble 
V:3 treble 
V:4 bass nm="Choir Pad, Pruen, 77.77"
V:5 bass 
V:6 bass 
V:1
 z4 z2 A2 | [EG]2 [DF]2 [CE]4 | z4 z2 G2 | [GB]2 [^FA]2 G4 | [EG]2 [^CA]2 [DF]2 [FA]2 | G4 z4 | %6
 [Ec]2 [DB]2 [CA]2 [_B,G]2 | [A,F]2 [CE]2 C4- | C4 z4 |] %9
V:2
 [CE]2 [DG]2 c2 z F | x8 | D2 [DG]2 [EG]G z A | x8 | x8 | D2 z F [CE]4 | x8 | x8 | x8 |] %9
V:3
 z4 C4 | x8 | x8 | x8 | x8 | z2 B,2 z4 | x8 | x8 | x8 |] %9
V:4
 G,2 G,2 A,2 C2 | .C4 C4 | G,2 B,2[K:treble] C2 E2 | .D4 B,4 | A,2[K:bass] A,2 A,2 B,^C | %5
 D2 G,2 G,4 | .A,4 A,2 E,2 | F,2 F,2 E,4- | E,4 z4 |] %9
V:5
 C,2 B,,2 A,,2 F,2 | G,2 z B, C,4 | B,,2 G,,2 C,2 A,,2 | D,2 z C G,4 | ^C,2 A,,2 D,3 =C, | %5
 B,,2 G,,2 C,4 | z2 E,2 z4 | D,2 G,,2 C,4- | C,4 z4 |] %9
V:6
 x8 | z2 G,,2 z4 | x8 | z2 D,2 z4 | x8 | x8 | A,,2 z ^G, F,2 ^C,2 | x8 | x8 |] %9

